X:3783
T:Lord Harwick's March. JMT029
O:england
M:4/4
L:1/8
Q:130
S:J.Moore,Tyneside,1841.(22)
R:March
A:Northumbria
H:184
K:D
A>F|F2F>F FF3|F3A dAGF|E2E>E EE3|E3F GBAG|
F2f>f ff3|f3a bagf|ebag fedc|d2d>dd2:|
|:f>f|a2a>aa2a>a|f2d2a2A>A|A2A>AA2A>A|F2D2A2a>a|
a2A>AA2a>a|a2A>AA2a>a|aaaaa4|a2a2a2A>G|
F2F>F FF3|F3A dAGF|E2E>E EE3|E3F GBAG|
F2f>f ff3|f3a bagf|ebag fedc|d2d>dd2:|
|:z2|F4D3F|A2d>AF2A>F|D2F>DG,2g2|f2(d/e/f/g/) aaaa|
f2(d/e/f/g/)aaaf|f>fa>a f>f d>d|a2a>aa2:|
|:z2|AA/A/ AAA4|g4e2z2|AA/A/ AAA4|a4f2z2|
AA/A/ AAA4|g2zfg2zf|.g.g.f.f .e.e.d.d|.c.c.B.B .A.A.G.G|
F2F>FFF3|F2A2dAGF|E2E>EEE3|E3F GBAG|
F2f>f ff3|f2a2bagf|ebag fedc |d2d>dd2:|]


